X:1
T:Amunt València
T:Amunt València
T:E. Perucho
C:E. Perucho
L:1/8
M:2/4
K:Eb
V:1 bass nm="Piano" snm="Pno."
V:1
!mf!"^1/2 Pos." !4!C,D, | !1!E,G, !4!F,E, | (3(D,/E,/D,/) (!4!C,3 | C,)C, !0!D,E, | G,2 (G,2 | %5
 G,)F, !1!E,F, | (!0!D,4 | D,4 | D,) z !2!=B,,C, | !0!D,F, !1!E,D, | (3(C,/D,/C,/) (!2!=B,,3 | %11
 B,,)!4!G,, =B,,D, | !4!F,2 (F,2 | F,)G, E,D, | (!4!C,4 | C,4 | C,) z C,D, | !1!E,G, !4!F,E, | %18
 (3(D,/E,/)D,/ (!4!C,3 | C,)C, D,E, | !0!G,2 (G,2 | G,)!4!F, !2!=E,G, | (F,4 | F,4 | %24
 F,) z !0!D,!1!E, | F,!1!A, G,F, | E, (G,3 | G,)!1!E, !4!C,E, | !0!D, (F,3 | %29
 F,)D,"^1º Pos" !1!=B,,D, | (!2!C,4 | C,4 | C,) z!f! !>!!0!G,2 | !>!G,2 !>!G,2 || %34
[K:C] !>!!2!F, (!>!G,3 | G,)!>!G, !>!G,!>!G, | F, (G,3 | G,)G, !1!A,G, | (!1!E,4 | E,4 | %40
 E,) z !>!!0!G,2 | !>!G,2 !>!G,2 | !>!!2!F, (!>!G,3 | G,)!>!G, !>!G,!>!G, | !>!F, (!>!G,3 | %45
 G,)G, !1!A,G, | (!1!E,4 | E,4 | E,) z!fff! !>!G,2 | !>!G,2 !>!G,2 | !>!!2!F, (!>!G,3 | %51
 G,)G, G,G, | !2!F, (G,3 | G,)G, !1!A,B, | (C4 | C4 | C4 | C4 | C) z z2 | C2 C2 | C2 z2 |] %61

